assets/illustrations/default/Agent-flat-2.svg

<svg width="1080" height="1080" viewBox="0 0 1080 1080" fill="none" xmlns="http://www.w3.org/2000/svg">
<path d="M1029.07 578.104H951.475L951.904 335.666C952.284 280.387 930.894 227.179 892.359 187.544C873.818 168.261 851.582 152.912 826.977 142.415C802.372 131.917 775.903 126.487 749.152 126.448L322.833 125.558H322.47C295.782 125.551 269.365 130.912 244.791 141.323C220.218 151.734 197.989 166.982 179.429 186.159C140.748 225.659 119.168 278.797 119.356 334.082L118.927 576.52H41.3691L41.765 334.082C41.5479 258.498 71.0917 185.865 124.007 131.892C149.775 105.318 180.623 84.1979 214.717 69.7861C248.811 55.3743 285.455 47.9654 322.47 48.0001H322.965L749.284 48.7259C786.382 48.7563 823.093 56.262 857.225 70.7947C891.358 85.3273 922.212 106.589 947.945 133.31C1000.63 187.443 1029.91 260.127 1029.46 335.666L1029.07 578.104Z" fill="#ACB8D6"/>
<path d="M99.3305 532.084H124.831V811.536H99.3305C72.9864 811.536 47.7213 801.071 29.0932 782.442C10.4652 763.814 5.47862e-06 738.549 5.47862e-06 712.205V631.448C-0.00432765 618.401 2.56173 605.481 7.55162 593.425C12.5415 581.37 19.8574 570.416 29.0816 561.189C38.3057 551.962 49.2573 544.642 61.3107 539.648C73.3642 534.655 86.2834 532.084 99.3305 532.084Z" fill="#E5EEFE"/>
<path d="M980.67 811.536H955.169V532.084H980.67C993.714 532.084 1006.63 534.653 1018.68 539.645C1030.73 544.637 1041.68 551.954 1050.91 561.177C1060.13 570.401 1067.45 581.351 1072.44 593.403C1077.43 605.454 1080 618.37 1080 631.415V712.172C1080 725.216 1077.43 738.133 1072.44 750.184C1067.45 762.236 1060.13 773.186 1050.91 782.409C1041.68 791.633 1030.73 798.95 1018.68 803.942C1006.63 808.933 993.714 811.503 980.67 811.503V811.536Z" fill="#E5EEFE"/>
<path d="M737.77 189.095H328.703C208.637 189.095 111.305 286.428 111.305 406.494V815.56C111.305 935.626 208.637 1032.96 328.703 1032.96H737.77C857.836 1032.96 955.168 935.626 955.168 815.56V406.494C955.168 286.428 857.836 189.095 737.77 189.095Z" fill="#FDC2BF"/>
<path d="M826.94 521.065C826.94 521.065 955.169 643.884 955.169 723.421V472.043H809.753L826.94 521.065Z" fill="#211F3C"/>
<path d="M94.2168 420.316V351.962C94.2168 296.518 116.242 243.345 155.447 204.14C194.652 164.935 247.825 142.91 303.269 142.91H753.605C878.535 142.91 990.302 242.537 990.302 357.999C990.302 357.999 1013.96 585.625 704.418 503.152C704.418 503.152 414.113 401.116 280.969 476.332C183.024 531.49 110.876 652.23 111.305 740.773L110.909 733.417L94.2168 420.316Z" fill="#2C2A46"/>
<path fill-rule="evenodd" clip-rule="evenodd" d="M64.0977 805.076V876.028V877.71C65.978 899.714 86.8602 941.314 152.41 941.314H444.958L445.024 901.727H152.476C147.89 901.727 107.907 901.1 103.685 874.708V811.535H99.3304C87.1744 811.535 75.2481 809.306 64.0977 805.076Z" fill="#ACB8D6"/>
<path d="M449.18 882.627H561.574C572.257 882.627 582.503 886.87 590.056 894.424C597.61 901.978 601.854 912.224 601.854 922.906V924.061C601.854 934.744 597.61 944.989 590.056 952.543C582.503 960.097 572.257 964.341 561.574 964.341H449.18C447.213 964.341 445.266 963.954 443.449 963.201C441.632 962.448 439.981 961.345 438.59 959.954C437.199 958.564 436.096 956.912 435.343 955.095C434.59 953.278 434.203 951.331 434.203 949.364V897.769C434.181 895.788 434.553 893.823 435.295 891.987C436.038 890.15 437.138 888.48 438.531 887.072C439.924 885.663 441.582 884.545 443.41 883.782C445.238 883.019 447.199 882.627 449.18 882.627Z" fill="#3A4A65"/>
</svg>

<svg width="1080" height="1080" fill="none" xmlns="http://www.w3.org/2000/svg"><path d="M1029.07 578.104h-77.595l.429-242.438a210.413 210.413 0 0 0-59.545-148.122 199.071 199.071 0 0 0-143.207-61.096l-426.319-.89h-.363a198.995 198.995 0 0 0-143.041 60.601 210.4 210.4 0 0 0-60.073 147.923l-.429 242.438H41.369l.396-242.438a287.633 287.633 0 0 1 82.242-202.19A276.083 276.083 0 0 1 322.47 48h.495l426.319.726a276.114 276.114 0 0 1 198.661 84.584 287.677 287.677 0 0 1 81.515 202.356l-.39 242.438Z" fill="#ACB8D6"/><path d="M99.33 532.084h25.501v279.452h-25.5A99.33 99.33 0 0 1 0 712.205v-80.757a99.337 99.337 0 0 1 29.08-70.259 99.337 99.337 0 0 1 70.25-29.105Zm881.34 279.452h-25.501V532.084h25.501a99.313 99.313 0 0 1 38.01 7.561 99.446 99.446 0 0 1 32.23 21.532 99.354 99.354 0 0 1 21.53 32.226 99.359 99.359 0 0 1 7.56 38.012v80.757a99.34 99.34 0 0 1-29.09 70.237 99.433 99.433 0 0 1-32.23 21.533 99.331 99.331 0 0 1-38.01 7.561v.033Z" fill="#E5EEFE"/><path d="M737.77 189.095H328.703c-120.066 0-217.398 97.333-217.398 217.399V815.56c0 120.066 97.332 217.4 217.398 217.4H737.77c120.066 0 217.398-97.334 217.398-217.4V406.494c0-120.066-97.332-217.399-217.398-217.399Z" fill="#FDC2BF"/><path d="M826.94 521.065s128.229 122.819 128.229 202.356V472.043H809.753l17.187 49.022Z" fill="#211F3C"/><path d="M94.217 420.316v-68.354A209.052 209.052 0 0 1 303.269 142.91h450.336c124.93 0 236.697 99.627 236.697 215.089 0 0 23.658 227.626-285.884 145.153 0 0-290.305-102.036-423.449-26.82-97.945 55.158-170.093 175.898-169.664 264.441l-.396-7.356-16.692-313.101Z" fill="#2C2A46"/><path fill-rule="evenodd" clip-rule="evenodd" d="M64.098 805.076v72.634c1.88 22.004 22.762 63.604 88.312 63.604h292.548l.066-39.587H152.476c-4.586 0-44.569-.627-48.791-27.019v-63.173H99.33a99.312 99.312 0 0 1-35.232-6.459Z" fill="#ACB8D6"/><path d="M449.18 882.627h112.394a40.277 40.277 0 0 1 40.28 40.279v1.155a40.28 40.28 0 0 1-40.28 40.28H449.18a14.967 14.967 0 0 1-10.59-4.387 14.973 14.973 0 0 1-4.387-10.59v-51.595a14.987 14.987 0 0 1 4.328-10.697 14.967 14.967 0 0 1 10.649-4.445Z" fill="#3A4A65"/></svg>
